svg/fluentui-system-icons/ic_fluent_square_arrow_forward_16_filled.svg

<svg width="16" height="16" viewBox="0 0 16 16" fill="none" xmlns="http://www.w3.org/2000/svg">
<path d="M2.5 4.5C2.5 3.39543 3.39543 2.5 4.5 2.5H11.5C12.6046 2.5 13.5 3.39543 13.5 4.5V5.88947C12.6372 5.32692 11.6068 5 10.5 5C7.46243 5 5 7.46243 5 10.5C5 11.6068 5.32692 12.6372 5.88947 13.5H4.5C3.39543 13.5 2.5 12.6046 2.5 11.5V4.5ZM10.5 15C8.01472 15 6 12.9853 6 10.5C6 8.01472 8.01472 6 10.5 6C12.9853 6 15 8.01472 15 10.5C15 12.9853 12.9853 15 10.5 15ZM11.3964 8.60355L12.2929 9.5H10.75C9.23122 9.5 8 10.7312 8 12.25V12.5C8 12.7761 8.22386 13 8.5 13C8.77614 13 9 12.7761 9 12.5V12.25C9 11.2835 9.7835 10.5 10.75 10.5H12.2929L11.3964 11.3964C11.2012 11.5917 11.2012 11.9083 11.3964 12.1036C11.5917 12.2988 11.9083 12.2988 12.1036 12.1036L13.8557 10.3514C13.9026 10.304 13.938 10.2495 13.9621 10.1914C13.9865 10.1324 14 10.0678 14 10C14 9.93221 13.9865 9.86756 13.9621 9.80861C13.9377 9.74964 13.9015 9.69439 13.8536 9.64645L12.1036 7.89645C11.9083 7.70118 11.5917 7.70118 11.3964 7.89645C11.2012 8.09171 11.2012 8.40829 11.3964 8.60355Z" fill="#212121"/>
</svg>

<svg xmlns="http://www.w3.org/2000/svg" width="16" height="16"><path d="M2.5 4.5a2 2 0 0 1 2-2h7a2 2 0 0 1 2 2v1.39a5.5 5.5 0 0 0-7.61 7.61H4.5a2 2 0 0 1-2-2v-7Zm8 10.5a4.5 4.5 0 1 1 0-9 4.5 4.5 0 0 1 0 9Zm.896-6.396.897.896H10.75A2.75 2.75 0 0 0 8 12.25v.25a.5.5 0 0 0 1 0v-.25c0-.966.784-1.75 1.75-1.75h1.543l-.897.896a.5.5 0 0 0 .708.708l1.752-1.753a.499.499 0 0 0-.002-.705l-1.75-1.75a.5.5 0 0 0-.708.708Z"/></svg>
